X:106
U: ~ = !turn!
%%topmargin 3cm
T:Killarney Wonder Schottische
B:Traditional Irish Fiddle Tunes. Randy Miller and Jack Perron.
Z:Transcribed by Ralph Palmer
S:Michael Coleman
R:Schottische
L:1/8
M:C|
K:ADor
[E2A2] AB {/d}cBce | dB ((3gab) af g2 | [E2A2] AB {/d}cBce | dBGB {/c}BA A2 ::
Ja2 ag a2 ba | gagd ((3ega) gd | eagb a2 ba | {/a}gfgd {/c}BA A2 |
((3aba) ((3gab) a2 g2 "(A"| ((3efe) ((3ded) ((3cdc) BA "A)"| [E2A2] AB {/d}cBce | dBGB {/c}BA A2:|]
xxxx "(A"|| ((3efe) dB ((3cdc) BA "A)"|| xxxx xxxx [|] xxxx xxxx[|]
